!!!!SEGMENT: Lps2004-Miserere_mei_Deus.krn
!!!id: Lps2004
!!!AGN: Motet
!!!SCT: Sherr (1989)
!!!voices: 5
!!!COM: Lupus Hellinck
!!!OTL: Miserere mei Deus
**kern	**kern	**kern	**kern	**kern
*part5	*part4	*part3	*part2	*part1
*staff5	*staff4	*staff3	*staff2	*staff1
*I"Bassus	*I"Tenor II	*I"Tenor I	*I"Altus	*I"Superius
*I'B	*I'T. II	*I'T. I	*I'A	*I'S
*clefF4	*clefGv2	*clefGv2	*clefGv2	*clefG2
*k[]	*k[]	*k[]	*k[]	*k[]
*C:	*C:	*C:	*C:	*C:
*M2/1	*M2/1	*M2/1	*M2/1	*M2/1
*met(C|)	*met(C|)	*met(C|)	*met(C|)	*met(C|)
!!Section: Prima pars: Miserere mei Deus
!!!OMD: Prima pars: Miserere mei Deus
=1	=1	=1	=1	=1
0r	1.E	0r	0r	0r
.	2E	.	.	.
=2	=2	=2	=2	=2
0r	1G	0r	0r	0r
.	1A	.	.	.
=3	=3	=3	=3	=3
0r	0c	0r	0r	1.e
.	.	.	.	2e
=4	=4	=4	=4	=4
1r	1B	0r	0r	1g
[1AA	[1A	.	.	1a
=5	=5	=5	=5	=5
2AA]	1A]	0r	0r	0cc
2AA	.	.	.	.
1C	1G	.	.	.
=6	=6	=6	=6	=6
1D	2r	0r	1r	1b
.	2d	.	.	.
[1F	2c	.	[1A	[1a
.	2A	.	.	.
=7	=7	=7	=7	=7
1F]	2c	0r	2A]	1a]
.	2d	.	2A	.
1E	1e	.	1c	1g
=8	=8	=8	=8	=8
0D	1f	0A	1d	0r
.	2F	.	[1f	.
.	[2A	.	.	.
=9	=9	=9	=9	=9
0C	2A]	1c	1f]	1r
.	4G	.	.	.
.	4F	.	.	.
.	[1G	1c	1e	1g
=10	=10	=10	=10	=10
0r	1G]	1d	0d	1b
.	1D	[1f	.	[1a
=11	=11	=11	=11	=11
1r	1F	1f]	0c	1a]
1C	2.G	1e	.	[1g
.	4A	.	.	.
=12	=12	=12	=12	=12
1.G	2B	0d	0r	1g]
.	1c	.	.	.
.	.	.	.	1g
2G	2B	.	.	.
=13	=13	=13	=13	=13
1A	2c	0c	1r	2e
.	2F	.	.	1cc
1F	1f	.	1c	.
.	.	.	.	4b
.	.	.	.	4a
=14	=14	=14	=14	=14
0G	1.d	1r	1.g	2.b
.	.	.	.	4cc
.	.	1G	.	4dd
.	.	.	.	4ee
.	2e	.	2g	[2dd
=15	=15	=15	=15	=15
0r	1.f	1.d	1a	2dd]
.	.	.	.	4cc
.	.	.	.	4b
.	.	.	1f	2.a
.	4e	2d	.	.
.	4d	.	.	4b
=16	=16	=16	=16	=16
1r	2.c	1e	[0g	4cc
.	.	.	.	4dd
.	.	.	.	1ee
.	4d	.	.	.
1C	4e	1c	.	.
.	4f	.	.	.
.	2g	.	.	4dd
.	.	.	.	4cc
=17	=17	=17	=17	=17
1.G	4G	0d	0g]	0b
.	4A	.	.	.
.	4B	.	.	.
.	4c	.	.	.
.	2d	.	.	.
2G	2B	.	.	.
=	=	=	=	=
*	*M3/3%2	*	*	*
*	*met(3)	*	*	*
*	*Xtuplet	*	*	*
1A	3.c	0r	1r	2e
.	6d	.	.	1cc
.	3e	.	.	.
1F	3.f	.	1c	.
.	6g	.	.	4b
.	3a	.	.	.
.	.	.	.	4a
=	=	=	=	=
*	*tuplet	*	*	*
*	*M2/1	*	*	*
*	*met(C|)	*	*	*
1G	1d	1r	1.g	2.b
.	.	.	.	4cc
1r	2.d	1G	.	4dd
.	.	.	.	4cc
.	.	.	2g	[2dd
.	4e	.	.	.
=18	=18	=18	=18	=18
1.D	1f	1.d	1a	2dd]
.	.	.	.	4cc
.	.	.	.	4b
.	1F	.	1f	2.a
2D	.	2d	.	.
.	.	.	.	4b
=19	=19	=19	=19	=19
1C	2r	1e	1g	4cc
.	.	.	.	4b
.	1E	.	.	2.cc
1AA	.	1c	1r	.
.	.	.	.	4b
.	[2F	.	.	4a
.	.	.	.	4g
=20	=20	=20	=20	=20
0BB-X	2F]	1d	1.d	4f
.	.	.	.	4e
.	2D	.	.	1f
.	2F	1r	.	.
.	2G	.	2d	4e
.	.	.	.	4d
=21	=21	=21	=21	=21
0AA	2A	1.A	1c	2f
.	2E	.	.	2.e
.	1c	.	1A	.
.	.	.	.	4d
.	.	2A	.	4e
.	.	.	.	4f
=22	=22	=22	=22	=22
0r	1d	1G	0B	4g
.	.	.	.	4a
.	.	.	.	2.g
.	1e	1E	.	.
.	.	.	.	4f
.	.	.	.	4e
.	.	.	.	4d
=23	=23	=23	=23	=23
0r	2r	0F	0A	1c
.	2.c	.	.	.
.	.	.	.	2A
.	4B	.	.	.
.	[2A	.	.	[2c
=24	=24	=24	=24	=24
1r	2A]	0E	0r	2c]
.	4G	.	.	4B
.	4F	.	.	4A
1E	1G	.	.	1B
=25	=25	=25	=25	=25
1.F	2A	0r	0r	0A
.	2c	.	.	.
.	2d	.	.	.
2D	2f	.	.	.
=26	=26	=26	=26	=26
1A	2e	0r	0r	0r
.	2.f	.	.	.
2G	.	.	.	.
.	4e	.	.	.
2E	[2e	.	.	.
=27	=27	=27	=27	=27
1F	2e]	1A	0r	2r
.	2d	.	.	2a
[1E	1e	[1B	.	2g
.	.	.	.	2e
=28	=28	=28	=28	=28
1E]	1E	2B]	1e	1g
.	.	2G	.	.
1r	1r	1d	[1f	[1a
=29	=29	=29	=29	=29
0r	2r	1d	2f]	2a]
.	2G	.	2d	2b
.	2A	1c	1a	1cc
.	2F	.	.	.
=30	=30	=30	=30	=30
0r	2G	0r	2g	2b
.	1A	.	2e	1cc
.	.	.	1f	.
.	2F	.	.	4b
.	.	.	.	4a
=31	=31	=31	=31	=31
0r	2.c	0r	2e	2g
.	.	.	2g	1cc
.	4B	.	.	.
.	2A	.	2f	.
.	2G	.	[2e	2b
=32	=32	=32	=32	=32
0r	1F	1A	2e]	1a
.	.	.	2d	.
.	2E	2B	1e	1g
.	2C	[2c	.	.
=33	=33	=33	=33	=33
0r	2.F	2c]	1A	2a
.	.	2A	.	2.cc
.	4G	.	.	.
.	2A	2c	2e	.
.	.	.	.	4b
.	2D	2d	2f	[2a
=34	=34	=34	=34	=34
1E	2E	1B	1e	2a]
.	2e	.	.	2g#i
1F	2c	2A	1r	[1a
.	2A	2c	.	.
=35	=35	=35	=35	=35
2F	1.f	2d	0r	0a_
2D	.	2.f	.	.
2.F	.	.	.	.
.	.	4e	.	.
.	2f	[2d	.	.
4G	.	.	.	.
=36	=36	=36	=36	=36
1A	1e	2d]	1e	0a_
.	.	2c#i	.	.
[1D	[1d	2d	[1f	.
.	.	[2A	.	.
=37	=37	=37	=37	=37
1D]	1d]	2A]	1f]	1a]
.	.	2A	.	.
[1AA	2r	[1A	1e	1cc
.	2c	.	.	.
=38	=38	=38	=38	=38
2AA]	2e	1A]	1c	2cc
2AA	2e	.	.	2cc
1D	2f	1A	1d	1a
.	2F	.	.	.
=39	=39	=39	=39	=39
1C	2G	1c	1.e	1r
.	2.A	.	.	.
[1D	.	2.F	.	1a
.	4G	.	.	.
.	4F	.	4d	.
.	4E	4G	4c	.
=40	=40	=40	=40	=40
2D]	1F	1A	1d	2.a
2D	.	.	.	.
.	.	.	.	4b
[1AA	[1E	2.A	[1e	[1cc
.	.	4B	.	.
=41	=41	=41	=41	=41
1AA]	1E]	2.c	1e]	1cc]
.	.	4d	.	.
1r	[1c	2.e	1r	[1g
.	.	4f	.	.
=42	=42	=42	=42	=42
1r	0c_	1g	0e	1g]
[1A	.	[1a	.	[1cc
=43	=43	=43	=43	=43
1A]	1c]	1a]	1c	1cc]
1F	1c	1a	[1A	1cc
=44	=44	=44	=44	=44
1F	1d	1f	1A]	1a
[1E	[1e	[1g	1B	1r
=45	=45	=45	=45	=45
1E]	1e]	1g]	0e	0g
1r	[1c	1r	.	.
=46	=46	=46	=46	=46
0A	1c]	0a	1c	0cc
.	[1c	.	[1A	.
=47	=47	=47	=47	=47
1F	1c]	1a	0A]	1cc
1F	1d	1f	.	1a
=48	=48	=48	=48	=48
0E	0e	0g	1B	1r
.	.	.	[1G	[1g
=49	=49	=49	=49	=49
1.C	1.E	2.e	1G]	2g]
.	.	.	.	1cc
.	.	4f	.	.
.	.	2g	2E	.
2D	2F	[2f	[2A	2a
=50	=50	=50	=50	=50
1BB	1D	2f]	2A]	1b
.	.	4e	2G#i	.
.	.	4d	.	.
[1AA	1E	[1c	[1A	[1cc
=51	=51	=51	=51	=51
1AA]	0e	1c]	1A]	1cc]
[1A	.	1c	1r	2r
.	.	.	.	[2cc
=52	=52	=52	=52	=52
1A]	1.c	1e	0a	2cc]
.	.	.	.	2cc
1F	.	1f	.	2a
.	2A	.	.	2cc
=53	=53	=53	=53	=53
1D	1d	1.F	1f	2b
.	.	.	.	1a
[1E	2.c	.	1e	.
.	.	2A	.	4g#i
.	8BL	.	.	4f#i
.	8AJ	.	.	.
=54	=54	=54	=54	=54
1E]	1B	1G	0e	1g#i
[1AA	1A	[1E	.	[1a
=55	=55	=55	=55	=55
0AA_	2r	1E]	0c	1a]
.	2E	.	.	.
.	2F	1r	.	2r
.	2E	.	.	[2cc
=56	=56	=56	=56	=56
1AA]	1F	1r	2.A	2cc]
.	.	.	.	4b
.	.	.	4B	4a
1r	2.E	2r	4c	2.g
.	.	.	4G	.
.	.	2e	[2g	.
.	4F	.	.	4a
=57	=57	=57	=57	=57
0r	2G	2e	2g]	2b
.	2A	2c	2e	2cc
.	2F	2d	2f	2a
.	2c	2e	[2e	[2cc
=58	=58	=58	=58	=58
1r	2A	1f	2e]	2cc]
.	2B	.	2d	2b
2r	2.c	1e	1e	2g
2A	.	.	.	[2cc
.	4d	.	.	.
=59	=59	=59	=59	=59
2A	2e	1r	1A	2cc]
2F	2f	.	.	4b
.	.	.	.	4a
2G	2e	2r	1r	2b
2A	[2f	2c	.	[2a
=60	=60	=60	=60	=60
1B-X	2f]	2.d	0r	2a]
.	4e	.	.	2g
.	4d	4e	.	.
1A	1c	2f	.	2a
.	.	2e	.	[2cc
=61	=61	=61	=61	=61
1r	2.A	2.c	0r	2cc]
.	.	.	.	4b
.	4B	4d	.	4a
2r	2c	4e	.	2.g
.	.	4f	.	.
2E	[2B	[2g	.	.
.	.	.	.	4a
=62	=62	=62	=62	=62
2E	2B]	4g]	0r	2b
.	.	4f	.	.
2C	1A	2e	.	2e
2D	.	2d	.	2f
2E	2G	[2c	.	[2e
=63	=63	=63	=63	=63
1F	1A	4c]	1r	2e]
.	.	4B	.	.
.	.	1A	.	2d
1E	1B	.	2r	2e
.	.	2G#i	2e	2b
=64	=64	=64	=64	=64
1AA	2A	0A	2e	2cc
.	2e	.	2c	2.a
2D	2f	.	2d	.
.	.	.	.	4b
2C	2e	.	2e	2cc
=65	=65	=65	=65	=65
1D	2.d	1r	1f	2b
.	.	.	.	1a
.	4c	.	.	.
1E	1B	2r	1e	.
.	.	2E 2e	.	2g#i
=66	=66	=66	=66	=66
1AA	2A	2E 2e	2r	[0al
.	2A	2C 2c	2e	.
2D	2A	2D 2d	2f	.
2C	2A	2E 2e	[2e	.
=67	=67	=67	=67	=67
1D	2.A	1F 1f	2e]	0a_
.	.	.	2d	.
.	4B	.	.	.
[1AAl	[1cl	2E 2e	[1el	.
.	.	2E	.	.
=68	=68	=68	=68	=68
0AA_	0c_	2.A	0e_	0a_
.	.	4G	.	.
.	.	1A	.	.
=69	=69	=69	=69	=69
00AA]	00c]	00El	00e]	00a]
==	==	==	==	==
*-	*-	*-	*-	*-
!!!system-decoration: [*]
!!!RDF**kern: i = editorial accidental
!!!RDF**kern: l = terminal long
!!!ENC: Benjamin Ory
!!!END: 2021/1/17
!!!EED: Benjamin Ory
!!!EEV: 2022/05/05
!!!YEC: Copyright 2022 Benjamin Ory, All Rights Reserved
!!!ONB: Translated from MusicXML on 2022/05/05
